X: 6
T: Callum Beg
M:2/4
L:1/8
S:Howe - 1000 Jigs and Reels (c. 1867)
Z:AK/Fiddler's Companion
F:http/www.ibiblio.org/fiddlers/CAIT_CAMER.htm 2009-2-24
K:G
b/a/ \
| gG c/B/A/G/ | FA Ab/a/ | gG Bd | g2 a/g/f/e/ \
| dG c/B/A/G/ | FA AB | EF/G/ DE/F/ | G2G |]
d \
| g>a bg | a/g/f/e/ d>d | g>a bb | ba ad \
| g>a bb | be eb | ad f/g/a/f/ | g2g |]
%%sep 3 1 500
